www/assets/images/test_icons/flags/VU.svg

<svg fill="none" height="15" viewBox="0 0 21 15" width="21" xmlns="http://www.w3.org/2000/svg" xmlns:xlink="http://www.w3.org/1999/xlink"><mask id="a" height="15" maskUnits="userSpaceOnUse" width="21" x="0" y="0"><path d="m19 0h-17c-1.10457 0-2 .89543-2 2v11c0 1.1046.89543 2 2 2h17c1.1046 0 2-.8954 2-2v-11c0-1.10457-.8954-2-2-2z" fill="#fff"/></mask><g mask="url(#a)"><path d="m19 0h-17c-1.10457 0-2 .89543-2 2v11c0 1.1046.89543 2 2 2h17c1.1046 0 2-.8954 2-2v-11c0-1.10457-.8954-2-2-2z" fill="#fff"/><g clip-rule="evenodd" fill-rule="evenodd"><path d="m0 9h21v6h-21z" fill="#00963f"/><path d="m0 0h21v6h-21z" fill="#d4062e"/><path d="m9.208 9-7.208 6.033h-2v-15.033h2l7.2 6h11.8v3z" fill="#000"/><path d="m8.9 8-8.4 7-.5.033v-15.033h.5l8.4 7h12.1v1z" fill="#fecf00"/><path d="m0 1 8 6.5-8 6.5z" fill="#000"/><path d="m1.653 9.347c-.4-.457-.653-1.115-.653-1.847 0-1.38.895-2.5 2-2.5s2 1.12 2 2.5-.895 2.5-2 2.5v-1c.552 0 1-.672 1-1.5s-.448-1.5-1-1.5-1 .672-1 1.5c0 .46.138.87.354 1.146l-.7.7z" fill="#fecf00"/></g><path d="m19 .5h-17c-.82843 0-1.5.67157-1.5 1.5v11c0 .8284.67157 1.5 1.5 1.5h17c.8284 0 1.5-.6716 1.5-1.5v-11c0-.82843-.6716-1.5-1.5-1.5z" stroke="#000" stroke-opacity=".1"/></g></svg>

<svg width="21" height="15" viewBox="0 0 21 15" fill="none" xmlns="http://www.w3.org/2000/svg">
<mask id="mask0_3_11" style="mask-type:alpha" maskUnits="userSpaceOnUse" x="0" y="0" width="21" height="15">
<path d="M19 0H2C0.89543 0 0 0.89543 0 2V13C0 14.1046 0.89543 15 2 15H19C20.1046 15 21 14.1046 21 13V2C21 0.89543 20.1046 0 19 0Z" fill="white"/>
</mask>
<g mask="url(#mask0_3_11)">
<path d="M19 0H2C0.89543 0 0 0.89543 0 2V13C0 14.1046 0.89543 15 2 15H19C20.1046 15 21 14.1046 21 13V2C21 0.89543 20.1046 0 19 0Z" fill="white"/>
<path fill-rule="evenodd" clip-rule="evenodd" d="M0 9H21V15H0V9Z" fill="#00963F"/>
<path fill-rule="evenodd" clip-rule="evenodd" d="M0 0H21V6H0V0Z" fill="#D4062E"/>
<path fill-rule="evenodd" clip-rule="evenodd" d="M9.208 9L2 15.033H0V0H2L9.2 6H21V9H9.208Z" fill="black"/>
<path fill-rule="evenodd" clip-rule="evenodd" d="M8.9 8L0.5 15L0 15.033V0H0.5L8.9 7H21V8H8.9Z" fill="#FECF00"/>
<path fill-rule="evenodd" clip-rule="evenodd" d="M0 1L8 7.5L0 14V1Z" fill="black"/>
<path fill-rule="evenodd" clip-rule="evenodd" d="M1.653 9.347C1.253 8.89 1 8.232 1 7.5C1 6.12 1.895 5 3 5C4.105 5 5 6.12 5 7.5C5 8.88 4.105 10 3 10V9C3.552 9 4 8.328 4 7.5C4 6.672 3.552 6 3 6C2.448 6 2 6.672 2 7.5C2 7.96 2.138 8.37 2.354 8.646L1.654 9.346L1.653 9.347Z" fill="#FECF00"/>
<path d="M19 0.5H2C1.17157 0.5 0.5 1.17157 0.5 2V13C0.5 13.8284 1.17157 14.5 2 14.5H19C19.8284 14.5 20.5 13.8284 20.5 13V2C20.5 1.17157 19.8284 0.5 19 0.5Z" stroke="black" stroke-opacity="0.1"/>
</g>
</svg>
